src/assets/feature-union.svg

<svg width="28" height="28" viewBox="0 0 28 28" fill="none" xmlns="http://www.w3.org/2000/svg">
<path fill-rule="evenodd" clip-rule="evenodd" d="M2 10.1C2 6.94863 2.6364 5.00281 3.81961 3.81961C5.00281 2.6364 6.94863 2 10.1 2H17.9C21.0514 2 22.9972 2.6364 24.1804 3.81961C25.3636 5.00281 26 6.94863 26 10.1V17.9C26 21.0514 25.3636 22.9972 24.1804 24.1804C22.9972 25.3636 21.0514 26 17.9 26C17.3477 26 16.9 26.4477 16.9 27C16.9 27.5523 17.3477 28 17.9 28C21.2486 28 23.8528 27.3364 25.5946 25.5946C27.3364 23.8528 28 21.2486 28 17.9V10.1C28 6.75137 27.3364 4.14718 25.5946 2.40539C23.8528 0.663601 21.2486 0 17.9 0H10.1C6.75137 0 4.14718 0.663601 2.40539 2.40539C0.663601 4.14718 0 6.75137 0 10.1C0 10.6523 0.447715 11.1 1 11.1C1.55228 11.1 2 10.6523 2 10.1ZM2 19.2C2 17.7986 2.2864 17.0778 2.68211 16.6821C3.07782 16.2864 3.79863 16 5.2 16H8.8C10.2014 16 10.9222 16.2864 11.3179 16.6821C11.7136 17.0778 12 17.7986 12 19.2V22.8C12 24.2014 11.7136 24.9222 11.3179 25.3179C10.9222 25.7136 10.2014 26 8.8 26H5.2C3.79863 26 3.07782 25.7136 2.68211 25.3179C2.2864 24.9222 2 24.2014 2 22.8V19.2ZM5.2 14C3.60137 14 2.22219 14.3136 1.26789 15.2679C0.313602 16.2222 0 17.6014 0 19.2V22.8C0 24.3986 0.313602 25.7778 1.26789 26.7321C2.22219 27.6864 3.60137 28 5.2 28H8.8C10.3986 28 11.7778 27.6864 12.7321 26.7321C13.6864 25.7778 14 24.3986 14 22.8V19.2C14 17.6014 13.6864 16.2222 12.7321 15.2679C11.7778 14.3136 10.3986 14 8.8 14H5.2ZM16.1976 6C15.6453 6 15.1976 6.44772 15.1976 7C15.1976 7.55228 15.6453 8 16.1976 8H18.5858L14.2929 12.2929C13.9024 12.6834 13.9024 13.3166 14.2929 13.7071C14.6834 14.0976 15.3166 14.0976 15.7071 13.7071L20 9.41421V12C20 12.5523 20.4477 13 21 13C21.5523 13 22 12.5523 22 12V7C22 6.77042 21.9226 6.55892 21.7926 6.39013C21.7523 6.33775 21.707 6.28977 21.6578 6.24675C21.4819 6.0931 21.2518 6 21 6H16.1976Z" fill="#FFBE5C"/>
</svg>

<svg fill="none" xmlns="http://www.w3.org/2000/svg" viewBox="0 0 28 28"><path fill-rule="evenodd" clip-rule="evenodd" d="M2 10.1c0-3.15.64-5.1 1.82-6.28C5 2.64 6.95 2 10.1 2h7.8c3.15 0 5.1.64 6.28 1.82C25.36 5 26 6.95 26 10.1v7.8c0 3.15-.64 5.1-1.82 6.28C23 25.36 21.05 26 17.9 26a1 1 0 1 0 0 2c3.35 0 5.95-.66 7.7-2.4 1.74-1.75 2.4-4.35 2.4-7.7v-7.8c0-3.35-.66-5.95-2.4-7.7C23.84.67 21.24 0 17.9 0h-7.8C6.75 0 4.15.66 2.4 2.4.67 4.16 0 6.76 0 10.1a1 1 0 1 0 2 0Zm0 9.1c0-1.4.29-2.12.68-2.52.4-.4 1.12-.68 2.52-.68h3.6c1.4 0 2.12.29 2.52.68.4.4.68 1.12.68 2.52v3.6c0 1.4-.29 2.12-.68 2.52-.4.4-1.12.68-2.52.68H5.2c-1.4 0-2.12-.29-2.52-.68-.4-.4-.68-1.12-.68-2.52v-3.6ZM5.2 14c-1.6 0-2.98.31-3.93 1.27C.3 16.22 0 17.6 0 19.2v3.6c0 1.6.31 2.98 1.27 3.93C2.22 27.7 3.6 28 5.2 28h3.6c1.6 0 2.98-.31 3.93-1.27.96-.95 1.27-2.33 1.27-3.93v-3.6c0-1.6-.31-2.98-1.27-3.93C11.78 14.3 10.4 14 8.8 14H5.2Zm11-8a1 1 0 1 0 0 2h2.39l-4.3 4.3a1 1 0 0 0 1.42 1.4L20 9.42V12a1 1 0 1 0 2 0V7a1 1 0 0 0-1-1h-4.8Z" fill="#FFBE5C"/></svg>
